**kern	**kern	**dynam
*part1	*part1	*part1
*staff2	*staff1	*
*I"Piano	*	*
*clefF4	*clefG2	*
*k[b-e-a-d-]	*k[b-e-a-d-]	*
=1	=1	=1
!	!LO:TX:a:B:t=Più lento	!
4r	4r	.
([4FFn	(4.An 4.e- 4.an	.
4BBB-) 4FF]	.	.
.	8B-) 8d- 8b-	.
=	=	=
4r	4r	.
(4DD- 4D-	(4A-X 4c 4f	.
4EE-) 4E-	4G) 4B- 4d-	.
=	=	=
*^	*	*
8rGG	4rGG	4r	.
4AA-	.	.	.
.	(4CC	(4g-X 4ee- 4gg-X	.
4AA-	.	.	.
.	4EE-	4e- 4cc 4ee-	.
[8AA-	.	.	.
=	=	=	=
8AA-]	4GG-X)	4c) 4a- 4cc	<
4AA-	.	.	.
.	(4DD-	(4f-X 4dd- 4ff-X	.
4AA-	.	.	.
.	4FF-X	4d- 4a- 4dd-	.
8AA-	.	.	.
=	=	=	=
*	*	*^	*
8GGnL	4ryy	4A-) 4f-X 4a-	4rddyy	.
8AA-J)	.	.	.	.
8rGG	2DD-	(4b-	2fn	[
4AA-	.	.	.	.
.	.	4a-)	.	>
[8AA-	.	.	.	.
=	=	=	=	=
8AA-]	2CC	(4b-	2e-	.
4AA-	.	.	.	.
.	.	4a-)	.	.
4AA-	.	.	.	.
.	4BBB-	4d- 4a- 4b-	4ryy	.
8AA-	.	.	.	.
*v	*v	*	*	*
*	*v	*v	*
=	=	=
(8AAA-'L	2.c 2.a- 2.cc	]
8EE-'	.	.
8AA-'	.	.
8C'	.	.
8E-'	.	.
8A-'J)	.	.
=	=	=
2.c;	2.a-; 2.ee-	.
==	==	==
*-	*-	*-
!!!system-decoration: {(s1,s2)}
